fs/text_font_size_16_regular.svg

<svg viewBox="0 0 16 16" fill="none" xmlns="http://www.w3.org/2000/svg" height="1em" width="1em">
  <path d="M10.97 2.32913C10.8982 2.13153 10.7104 2 10.5001 2C10.2899 2 10.1021 2.13153 10.0302 2.32913L6.46846 12.124L6.13279 11.3184C6.13003 11.3113 6.12711 11.3043 6.12403 11.2974L4.46167 7.30769C4.38403 7.12137 4.20198 7 4.00013 7C3.79828 7 3.61623 7.12137 3.53859 7.30769L1.87623 11.2974C1.87315 11.3043 1.87023 11.3113 1.86747 11.3184L1.03859 13.3077C0.932383 13.5626 1.05292 13.8553 1.30782 13.9615C1.56272 14.0677 1.85546 13.9472 1.96167 13.6923L2.6668 12H5.33346L6.03788 13.6906C6.0391 13.6935 6.04034 13.6965 6.0416 13.6994C6.06899 13.7624 6.10789 13.817 6.15479 13.8618C6.2016 13.9065 6.25788 13.9428 6.32205 13.9672C6.33418 13.9718 6.34651 13.976 6.35897 13.9797C6.46249 14.0102 6.56899 14.0056 6.66479 13.9721C6.67654 13.968 6.68812 13.9635 6.69952 13.9585C6.76245 13.9312 6.81698 13.8924 6.86167 13.8456C6.9065 13.7987 6.94287 13.7423 6.96734 13.6781C6.96847 13.6751 6.96956 13.6722 6.97063 13.6692L8.30489 10H12.6954L14.0302 13.6709C14.1246 13.9304 14.4115 14.0643 14.671 13.9699C14.9305 13.8755 15.0644 13.5886 14.97 13.3291L10.97 2.32913ZM10.5001 3.96309L12.3317 9H8.66853L10.5001 3.96309ZM4.00013 8.8L4.9168 11H3.08346L4.00013 8.8Z" fill="#212121"/>
</svg>

<svg viewBox="0 0 16 16" fill="none" xmlns="http://www.w3.org/2000/svg" height="1em" width="1em">
  <path d="M10.97 2.33a.5.5 0 0 0-.94 0l-3.562 9.794-.335-.806a.464.464 0 0 0-.009-.02l-1.662-3.99a.5.5 0 0 0-.923 0l-1.663 3.99a.464.464 0 0 0-.009.02l-.828 1.99a.5.5 0 1 0 .923.384L2.667 12h2.666l.705 1.69.004.01a.5.5 0 0 0 .929-.03L8.305 10h4.39l1.335 3.67a.5.5 0 0 0 .94-.34l-4-11Zm-.47 1.633L12.332 9H8.669L10.5 3.963ZM4 8.8l.917 2.2H3.083L4 8.8Z" fill="#212121"/>
</svg>
